src/images/portfolio-resinate/divider-right.svg

<svg height="133" viewBox="0 0 1440 133" width="1440" xmlns="http://www.w3.org/2000/svg"><g fill="#fff" fill-rule="evenodd"><path d="m655.47383-654h37.317254c37.335878 61.752054 64.074518 159.372931 80.21592 292.86263 24.212103 200.234548 7.154218 422.2652331-22.460917 703.557019-19.743423 187.527857-38.63634 336.054641-56.678752 445.580351h-38.393505z" opacity=".353627" transform="matrix(0 -1 -1 0 787 787)"/><path d="m666.621639-640.378361h50.35413c25.503784 45.823725 42.70998 140.701402 51.618587 284.633032 13.36291 215.897444-4.113064 732.526528-17.634896 876.907658-9.014555 96.254087-16.10228 195.740524-21.263175 298.45931h-63.074646z" transform="matrix(0 -1 -1 0 809.621639 809.621639)"/></g></svg>

<?xml version="1.0" encoding="UTF-8"?>
<svg width="1440px" height="133px" viewBox="0 0 1440 133" version="1.1" xmlns="http://www.w3.org/2000/svg" xmlns:xlink="http://www.w3.org/1999/xlink">
    <!-- Generator: Sketch 50.2 (55047) - http://www.bohemiancoding.com/sketch -->
    <title>divider-right</title>
    <desc>Created with Sketch.</desc>
    <defs></defs>
    <g id="divider-right" stroke="none" stroke-width="1" fill="none" fill-rule="evenodd">
        <path d="M655.47383,-654 L692.791084,-654 C730.126962,-592.247946 756.865602,-494.627069 773.007004,-361.13737 C797.219107,-160.902822 780.161222,61.1278631 750.546087,342.419649 C730.802664,529.947506 711.909747,678.47429 693.867335,788 L655.47383,788 L655.47383,-654 Z" id="Rectangle-3" fill="#FFFFFF" opacity="0.353627232" transform="translate(720.000000, 67.000000) scale(1, -1) rotate(90.000000) translate(-720.000000, -67.000000) "></path>
        <path d="M666.621639,-640.378361 L716.975769,-640.378361 C742.479553,-594.554636 759.685749,-499.676959 768.594356,-355.745329 C781.957266,-139.847885 764.481292,376.781199 750.95946,521.162329 C741.944905,617.416416 734.85718,716.902853 729.696285,819.621639 L666.621639,819.621639 L666.621639,-640.378361 Z" id="Rectangle-3" fill="#FFFFFF" transform="translate(720.000000, 89.621639) scale(1, -1) rotate(90.000000) translate(-720.000000, -89.621639) "></path>
    </g>
</svg>
